provider/ui/public/operator.svg

<svg
   width="20"
   height="19.980957"
   viewBox="0 0 20 19.980957"
   fill="currentColor"
   version="1.1"
   id="svg1"
   sodipodi:docname="operator.svg"
   inkscape:version="1.4.2 (2aeb623e1d, 2025-05-12)"
   xmlns:inkscape="http://www.inkscape.org/namespaces/inkscape"
   xmlns:sodipodi="http://sodipodi.sourceforge.net/DTD/sodipodi-0.dtd"
   xmlns="http://www.w3.org/2000/svg"
   xmlns:svg="http://www.w3.org/2000/svg">
  <sodipodi:namedview
     id="namedview1"
     pagecolor="#ffffff"
     bordercolor="#000000"
     borderopacity="0.25"
     inkscape:showpageshadow="2"
     inkscape:pageopacity="0.0"
     inkscape:pagecheckerboard="0"
     inkscape:deskcolor="#d1d1d1"
     inkscape:zoom="44"
     inkscape:cx="10"
     inkscape:cy="9.9772727"
     inkscape:window-width="2510"
     inkscape:window-height="1371"
     inkscape:window-x="50"
     inkscape:window-y="32"
     inkscape:window-maximized="1"
     inkscape:current-layer="g1" />
  <g
     clip-path="url(#clip0_115_25350)"
     id="g1"
     transform="translate(0,-0.019043)">
    <path
       d="M 11.8554,8.14464 C 11.589,7.87823 11.4367,7.53569 11.4367,7.13608 V 2.85444 H 5.00474 v 2.87345 h 2.15034 c 0.39962,0 0.72312,0.13321 1.00856,0.41865 0.26641,0.26641 0.41865,0.60895 0.41865,1.00856 v 5.7089 c 0,0.3996 -0.13321,0.7231 -0.41865,1.0085 -0.26641,0.2664 -0.60894,0.4187 -1.00856,0.4187 H 4.30065 v 2.8544 H 11.4557 V 12.883 c 0,-0.3996 0.1332,-0.7231 0.4187,-1.0086 0.2664,-0.2664 0.6089,-0.4186 1.0086,-0.4377 h 5.7088 c 0.3996,0 0.7231,0.1523 1.0086,0.4377 0.2664,0.2664 0.4186,0.609 0.4376,1.0086 v 5.7088 c 0,0.3997 -0.1522,0.7232 -0.4376,1.0086 -0.2664,0.2664 -0.609,0.4186 -1.0086,0.4377 H 12.883 c -0.3997,0 -0.7232,-0.1523 -1.0086,-0.4377 C 11.608,19.334 11.4557,18.9915 11.4557,18.5918 H 4.30065 c -0.39962,0 -0.72312,-0.1332 -1.00856,-0.4186 C 3.02568,17.8877 2.87344,17.5452 2.87344,17.1646 V 14.3102 H 1.4272 C 1.02758,14.3102 0.704078,14.177 0.418635,13.8915 0.152222,13.6251 -1.34744e-5,13.2826 -0.019043,12.883 V 7.17413 c 0,-0.39962 0.152236,-0.72312 0.437678,-1.00856 C 0.685048,5.89916 1.02758,5.74692 1.4272,5.72789 H 3.57753 V 2.87347 c 0,-0.38059 0.13321,-0.70409 0.41865,-0.98954 C 4.28162,1.59849 4.60512,1.46528 5.00474,1.46528 h 6.43196 c 0,-0.39961 0.1332,-0.723116 0.4187,-1.008559 0.2664,-0.266413 0.6089,-0.4186485 1.0085,-0.437678 h 5.7089 c 0.3996,0 0.7231,0.152236 1.0085,0.437678 C 19.8478,0.723134 20,1.06567 20.019,1.46528 v 5.70885 c 0,0.39962 -0.1522,0.72312 -0.4377,1.00857 -0.2664,0.26641 -0.6089,0.41865 -1.0085,0.41865 h -5.7089 c -0.3996,0 -0.7231,-0.13321 -1.0085,-0.41865 z M 7.15508,7.1551 H 1.44623 v 1.40819 h 5.70885 z m 0,5.7089 V 10.0095 H 1.44623 V 12.864 Z M 12.8639,1.44626 v 1.40818 h 5.7089 V 1.44626 Z M 18.5728,7.1551 V 4.30068 H 12.8639 V 7.1551 Z m -5.7089,5.7089 v 1.4081 h 5.7089 V 12.864 Z m 5.7089,5.7088 v -2.8544 h -5.7089 v 2.8544 z"
       id="path1"
       fill="currentColor"
       />
  </g>
  <defs
     id="defs1">
    <clipPath
       id="clip0_115_25350">
      <rect
         width="20"
         height="20"
         id="rect1"
         x="0"
         y="0" />
    </clipPath>
  </defs>
</svg>

<svg width="20" height="20" viewBox="0 0 20 20" fill="none" xmlns="http://www.w3.org/2000/svg">
<g clip-path="url(#clip0_115_25350)">
<path d="M11.8554 8.14464C11.589 7.87823 11.4367 7.53569 11.4367 7.13608V2.85444H5.00474V5.72789H7.15508C7.5547 5.72789 7.8782 5.8611 8.16364 6.14654C8.43005 6.41295 8.58229 6.75549 8.58229 7.1551V12.864C8.58229 13.2636 8.44908 13.5871 8.16364 13.8725C7.89723 14.1389 7.5547 14.2912 7.15508 14.2912H4.30065V17.1456H11.4557V12.883C11.4557 12.4834 11.5889 12.1599 11.8744 11.8744C12.1408 11.608 12.4833 11.4558 12.883 11.4367H18.5918C18.9914 11.4367 19.3149 11.589 19.6004 11.8744C19.8668 12.1408 20.019 12.4834 20.038 12.883V18.5918C20.038 18.9915 19.8858 19.315 19.6004 19.6004C19.334 19.8668 18.9914 20.019 18.5918 20.0381H12.883C12.4833 20.0381 12.1598 19.8858 11.8744 19.6004C11.608 19.334 11.4557 18.9915 11.4557 18.5918H4.30065C3.90103 18.5918 3.57753 18.4586 3.29209 18.1732C3.02568 17.8877 2.87344 17.5452 2.87344 17.1646V14.3102H1.4272C1.02758 14.3102 0.704078 14.177 0.418635 13.8915C0.152222 13.6251 -1.34744e-05 13.2826 -0.019043 12.883V7.17413C-0.019043 6.77451 0.133193 6.45101 0.418635 6.16557C0.685048 5.89916 1.02758 5.74692 1.4272 5.72789H3.57753V2.87347C3.57753 2.49288 3.71074 2.16938 3.99618 1.88393C4.28162 1.59849 4.60512 1.46528 5.00474 1.46528H11.4367C11.4367 1.06567 11.5699 0.742164 11.8554 0.456721C12.1218 0.190308 12.4643 0.0380725 12.8639 0.019043H18.5728C18.9724 0.019043 19.2959 0.171279 19.5813 0.456721C19.8478 0.723134 20 1.06567 20.019 1.46528V7.17413C20.019 7.57375 19.8668 7.89725 19.5813 8.1827C19.3149 8.44911 18.9724 8.60135 18.5728 8.60135H12.8639C12.4643 8.60135 12.1408 8.46814 11.8554 8.1827V8.14464ZM7.15508 7.1551H1.44623V8.56329H7.15508V7.1551ZM7.15508 12.864V10.0095H1.44623V12.864H7.15508ZM12.8639 1.44626V2.85444H18.5728V1.44626H12.8639ZM18.5728 7.1551V4.30068H12.8639V7.1551H18.5728ZM12.8639 12.864V14.2721H18.5728V12.864H12.8639ZM18.5728 18.5728V15.7184H12.8639V18.5728H18.5728Z" fill="#27FFFF"/>
</g>
<defs>
<clipPath id="clip0_115_25350">
<rect width="20" height="20" fill="white"/>
</clipPath>
</defs>
</svg>
